icons/blister_pills_oval_x14_fill.svg

<svg width="48" height="48" viewBox="0 0 48 48" fill="none" xmlns="http://www.w3.org/2000/svg">
<path fill-rule="evenodd" clip-rule="evenodd" d="M12 8C12 5.79086 13.7909 4 16 4H24.6C24.2686 4 24 4.26729 24 4.59702C24 4.92674 24.2686 5.19403 24.6 5.19403C24.9314 5.19403 25.2 4.92674 25.2 4.59702C25.2 4.26729 24.9314 4 24.6 4H32C34.2091 4 36 5.79086 36 8V40C36 42.2091 34.2091 44 32 44H24.615C24.9394 43.9921 25.2 43.7279 25.2 43.4032C25.2 43.0734 24.9314 42.8062 24.6 42.8062C24.2686 42.8062 24 43.0734 24 43.4032C24 43.7279 24.2606 43.9921 24.585 44H16C13.7909 44 12 42.2091 12 40V8ZM25.2 40.4183C25.2 40.0886 24.9314 39.8213 24.6 39.8213C24.2686 39.8213 24 40.0886 24 40.4183C24 40.748 24.2686 41.0153 24.6 41.0153C24.9314 41.0153 25.2 40.748 25.2 40.4183ZM24.6 36.8359C24.9314 36.8359 25.2 37.1032 25.2 37.433C25.2 37.7627 24.9314 38.03 24.6 38.03C24.2686 38.03 24 37.7627 24 37.433C24 37.1032 24.2686 36.8359 24.6 36.8359ZM25.2 34.4481C25.2 34.1184 24.9314 33.8511 24.6 33.8511C24.2686 33.8511 24 34.1184 24 34.4481C24 34.7778 24.2686 35.0451 24.6 35.0451C24.9314 35.0451 25.2 34.7778 25.2 34.4481ZM24.6 30.8657C24.9314 30.8657 25.2 31.133 25.2 31.4627C25.2 31.7925 24.9314 32.0598 24.6 32.0598C24.2686 32.0598 24 31.7925 24 31.4627C24 31.133 24.2686 30.8657 24.6 30.8657ZM25.2 28.4779C25.2 28.1482 24.9314 27.8809 24.6 27.8809C24.2686 27.8809 24 28.1482 24 28.4779C24 28.8076 24.2686 29.0749 24.6 29.0749C24.9314 29.0749 25.2 28.8076 25.2 28.4779ZM24.6 24.8955C24.9314 24.8955 25.2 25.1628 25.2 25.4925C25.2 25.8222 24.9314 26.0895 24.6 26.0895C24.2686 26.0895 24 25.8222 24 25.4925C24 25.1628 24.2686 24.8955 24.6 24.8955ZM25.2 22.5077C25.2 22.1779 24.9314 21.9106 24.6 21.9106C24.2686 21.9106 24 22.1779 24 22.5077C24 22.8374 24.2686 23.1047 24.6 23.1047C24.9314 23.1047 25.2 22.8374 25.2 22.5077ZM24.6 18.9253C24.9314 18.9253 25.2 19.1926 25.2 19.5223C25.2 19.852 24.9314 20.1193 24.6 20.1193C24.2686 20.1193 24 19.852 24 19.5223C24 19.1926 24.2686 18.9253 24.6 18.9253ZM25.2 16.5374C25.2 16.2077 24.9314 15.9404 24.6 15.9404C24.2686 15.9404 24 16.2077 24 16.5374C24 16.8672 24.2686 17.1345 24.6 17.1345C24.9314 17.1345 25.2 16.8672 25.2 16.5374ZM24.6 12.9556C24.9314 12.9556 25.2 13.2229 25.2 13.5526C25.2 13.8823 24.9314 14.1496 24.6 14.1496C24.2686 14.1496 24 13.8823 24 13.5526C24 13.2229 24.2686 12.9556 24.6 12.9556ZM25.2 10.5672C25.2 10.2375 24.9314 9.97021 24.6 9.97021C24.2686 9.97021 24 10.2375 24 10.5672C24 10.897 24.2686 11.1642 24.6 11.1642C24.9314 11.1642 25.2 10.897 25.2 10.5672ZM24.6 6.98535C24.9314 6.98535 25.2 7.25264 25.2 7.58237C25.2 7.91209 24.9314 8.17938 24.6 8.17938C24.2686 8.17938 24 7.91209 24 7.58237C24 7.25264 24.2686 6.98535 24.6 6.98535ZM17.8407 6.83578C18.3023 6.37419 19.0506 6.37419 19.5122 6.83578C19.9738 7.29738 19.9738 8.04576 19.5122 8.50735L17.8407 10.1789C17.3791 10.6405 16.6307 10.6405 16.1691 10.1789C15.7075 9.71733 15.7075 8.96895 16.1691 8.50735L17.8407 6.83578ZM19.5122 11.8358C19.0506 11.3742 18.3023 11.3742 17.8407 11.8358L16.1691 13.5074C15.7075 13.9689 15.7075 14.7173 16.1691 15.1789C16.6307 15.6405 17.3791 15.6405 17.8407 15.1789L19.5122 13.5074C19.9738 13.0458 19.9738 12.2974 19.5122 11.8358ZM17.8407 16.8358C18.3023 16.3742 19.0506 16.3742 19.5122 16.8358C19.9738 17.2974 19.9738 18.0458 19.5122 18.5074L17.8407 20.1789C17.3791 20.6405 16.6307 20.6405 16.1691 20.1789C15.7075 19.7173 15.7075 18.9689 16.1691 18.5074L17.8407 16.8358ZM19.5122 21.8358C19.0506 21.3742 18.3023 21.3742 17.8407 21.8358L16.1691 23.5074C15.7075 23.9689 15.7075 24.7173 16.1691 25.1789C16.6307 25.6405 17.3791 25.6405 17.8407 25.1789L19.5122 23.5074C19.9738 23.0458 19.9738 22.2974 19.5122 21.8358ZM17.8407 26.8358C18.3023 26.3742 19.0506 26.3742 19.5122 26.8358C19.9738 27.2974 19.9738 28.0458 19.5122 28.5074L17.8407 30.1789C17.3791 30.6405 16.6307 30.6405 16.1691 30.1789C15.7075 29.7173 15.7075 28.9689 16.1691 28.5074L17.8407 26.8358ZM19.5122 31.8358C19.0506 31.3742 18.3023 31.3742 17.8407 31.8358L16.1691 33.5074C15.7075 33.9689 15.7075 34.7173 16.1691 35.1789C16.6307 35.6405 17.3791 35.6405 17.8407 35.1789L19.5122 33.5074C19.9738 33.0458 19.9738 32.2974 19.5122 31.8358ZM17.8407 36.8358C18.3023 36.3742 19.0506 36.3742 19.5122 36.8358C19.9738 37.2974 19.9738 38.0458 19.5122 38.5074L17.8407 40.1789C17.3791 40.6405 16.6307 40.6405 16.1691 40.1789C15.7075 39.7173 15.7075 38.9689 16.1691 38.5074L17.8407 36.8358ZM31.5122 6.83578C31.0506 6.37419 30.3023 6.37419 29.8407 6.83578L28.1691 8.50735C27.7075 8.96895 27.7075 9.71733 28.1691 10.1789C28.6307 10.6405 29.3791 10.6405 29.8407 10.1789L31.5122 8.50735C31.9738 8.04576 31.9738 7.29738 31.5122 6.83578ZM29.8407 11.8358C30.3023 11.3742 31.0506 11.3742 31.5122 11.8358C31.9738 12.2974 31.9738 13.0458 31.5122 13.5074L29.8407 15.1789C29.3791 15.6405 28.6307 15.6405 28.1691 15.1789C27.7075 14.7173 27.7075 13.9689 28.1691 13.5074L29.8407 11.8358ZM31.5122 16.8358C31.0506 16.3742 30.3023 16.3742 29.8407 16.8358L28.1691 18.5074C27.7075 18.9689 27.7075 19.7173 28.1691 20.1789C28.6307 20.6405 29.3791 20.6405 29.8407 20.1789L31.5122 18.5074C31.9738 18.0458 31.9738 17.2974 31.5122 16.8358ZM29.8407 21.8358C30.3023 21.3742 31.0506 21.3742 31.5122 21.8358C31.9738 22.2974 31.9738 23.0458 31.5122 23.5074L29.8407 25.1789C29.3791 25.6405 28.6307 25.6405 28.1691 25.1789C27.7075 24.7173 27.7075 23.9689 28.1691 23.5074L29.8407 21.8358ZM31.5122 26.8358C31.0506 26.3742 30.3023 26.3742 29.8407 26.8358L28.1691 28.5074C27.7075 28.9689 27.7075 29.7173 28.1691 30.1789C28.6307 30.6405 29.3791 30.6405 29.8407 30.1789L31.5122 28.5074C31.9738 28.0458 31.9738 27.2974 31.5122 26.8358ZM29.8407 31.8358C30.3023 31.3742 31.0506 31.3742 31.5122 31.8358C31.9738 32.2974 31.9738 33.0458 31.5122 33.5074L29.8407 35.1789C29.3791 35.6405 28.6307 35.6405 28.1691 35.1789C27.7075 34.7173 27.7075 33.9689 28.1691 33.5074L29.8407 31.8358ZM31.5122 36.8358C31.0506 36.3742 30.3023 36.3742 29.8407 36.8358L28.1691 38.5074C27.7075 38.9689 27.7075 39.7173 28.1691 40.1789C28.6307 40.6405 29.3791 40.6405 29.8407 40.1789L31.5122 38.5074C31.9738 38.0458 31.9738 37.2974 31.5122 36.8358Z" fill="black"/>
</svg>

<svg
  xmlns="http://www.w3.org/2000/svg"
  width="24"
  height="24"
  viewBox="0 0 24 24"
  fill="none"
  stroke="currentColor"
  stroke-width="2"
  stroke-linecap="round"
  stroke-linejoin="round"
>
  <path
    fill-rule="evenodd"
    d="M12 8a4 4 0 0 1 4-4h8.6c-.331 0-.6.267-.6.597s.269.597.6.597.6-.267.6-.597A.6.6 0 0 0 24.6 4H32a4 4 0 0 1 4 4v32a4 4 0 0 1-4 4h-7.385a.6.6 0 0 0 .585-.597.6.6 0 0 0-.6-.597c-.331 0-.6.267-.6.597 0 .325.26.59.585.597H16a4 4 0 0 1-4-4zm13.2 32.418a.6.6 0 0 0-.6-.597c-.331 0-.6.268-.6.597 0 .33.269.597.6.597s.6-.267.6-.597m-.6-3.582c.331 0 .6.267.6.597s-.269.597-.6.597a.6.6 0 0 1-.6-.597c0-.33.269-.597.6-.597m.6-2.388a.6.6 0 0 0-.6-.597c-.331 0-.6.267-.6.597s.269.597.6.597.6-.267.6-.597m-.6-3.582c.331 0 .6.267.6.597s-.269.597-.6.597a.6.6 0 0 1-.6-.597c0-.33.269-.597.6-.597m.6-2.388a.6.6 0 0 0-.6-.597c-.331 0-.6.267-.6.597s.269.597.6.597.6-.267.6-.597m-.6-3.583a.598.598 0 1 1 0 1.194.6.6 0 0 1-.6-.596c0-.33.269-.598.6-.598m.6-2.387a.6.6 0 0 0-.6-.597c-.331 0-.6.267-.6.597s.269.597.6.597.6-.268.6-.597m-.6-3.583c.331 0 .6.268.6.597 0 .33-.269.597-.6.597a.6.6 0 0 1-.6-.597c0-.33.269-.597.6-.597m.6-2.388a.6.6 0 0 0-.6-.597c-.331 0-.6.268-.6.597 0 .33.269.598.6.598s.6-.268.6-.598m-.6-3.581c.331 0 .6.267.6.597s-.269.597-.6.597a.6.6 0 0 1-.6-.597c0-.33.269-.597.6-.597m.6-2.389a.6.6 0 0 0-.6-.597c-.331 0-.6.268-.6.597 0 .33.269.597.6.597s.6-.267.6-.597m-.6-3.582c.331 0 .6.268.6.597 0 .33-.269.597-.6.597a.6.6 0 0 1-.6-.597c0-.33.269-.597.6-.597m-6.76-.15a1.182 1.182 0 1 1 1.672 1.672l-1.671 1.672a1.182 1.182 0 0 1-1.672-1.672zm1.672 5a1.18 1.18 0 0 0-1.671 0l-1.672 1.672a1.182 1.182 0 1 0 1.672 1.672l1.671-1.672a1.18 1.18 0 0 0 0-1.671m-1.671 5a1.182 1.182 0 1 1 1.671 1.672l-1.671 1.672a1.182 1.182 0 0 1-1.672-1.672zm1.671 5a1.18 1.18 0 0 0-1.671 0l-1.672 1.672a1.182 1.182 0 1 0 1.672 1.672l1.671-1.672a1.18 1.18 0 0 0 0-1.671m-1.671 5a1.182 1.182 0 1 1 1.671 1.672l-1.671 1.672a1.182 1.182 0 0 1-1.672-1.672zm1.671 5a1.18 1.18 0 0 0-1.671 0l-1.672 1.672a1.182 1.182 0 1 0 1.672 1.672l1.671-1.672a1.18 1.18 0 0 0 0-1.671m-1.671 5a1.182 1.182 0 1 1 1.671 1.672l-1.671 1.672a1.182 1.182 0 0 1-1.672-1.672zm13.671-30a1.18 1.18 0 0 0-1.671 0l-1.672 1.672a1.182 1.182 0 1 0 1.672 1.672l1.671-1.672a1.18 1.18 0 0 0 0-1.671m-1.671 5a1.182 1.182 0 1 1 1.671 1.672l-1.671 1.672a1.182 1.182 0 0 1-1.672-1.672zm1.671 5a1.18 1.18 0 0 0-1.671 0l-1.672 1.672a1.182 1.182 0 1 0 1.672 1.672l1.671-1.672a1.18 1.18 0 0 0 0-1.671m-1.671 5a1.182 1.182 0 1 1 1.671 1.672l-1.671 1.672a1.182 1.182 0 0 1-1.672-1.672zm1.671 5a1.18 1.18 0 0 0-1.671 0l-1.672 1.672a1.182 1.182 0 1 0 1.672 1.672l1.671-1.672a1.18 1.18 0 0 0 0-1.671m-1.671 5a1.182 1.182 0 1 1 1.671 1.672l-1.671 1.672a1.182 1.182 0 0 1-1.672-1.672zm1.671 5a1.18 1.18 0 0 0-1.671 0l-1.672 1.672a1.182 1.182 0 1 0 1.672 1.672l1.671-1.672a1.18 1.18 0 0 0 0-1.671"
    clip-rule="evenodd"
  />
</svg>
